images/WarnerMedia_Logo.svg

<svg fill="none" height="289" viewBox="0 0 2329 289" width="2329" xmlns="http://www.w3.org/2000/svg"><path d="m2188.85 119.911-11-24.6969c22.63-13.481 48.55-20.4015 74.88-19.9871 51.32 0 76.02 28.189 76.02 80.728v126.977h-25.14l-2.7-22.776c-19.73 16.806-44.61 26.353-70.52 27.053-39.18 0-63.88-23.91-63.88-59.167 0-38.75 24.7-63.098 75.23-63.098h57.94v-6.635c0-36.477-16.05-56.027-51.66-56.027-20.93.554-41.35 6.636-59.17 17.629zm110.83 69.816h-56.81c-31.33 0-46.95 12.917-46.95 34.911s16.84 35.607 41.54 35.607c23.06-.689 45.12-9.569 62.22-25.049zm-676.79 93.208-36.91-218.18-77.59 218.18h-22.34l-77.23-218.7039-37.27 218.7039h-30.98l48.7-274.20912h30.19l77.94 228.04212 77.58-228.04212h30.2l48.7 274.29512zm219.14-14.488c-21.84 12.412-46.61 18.769-71.74 18.415-61.09 0-99.92-43.112-99.92-105.86 0-59.17 38.83-105.775 92.86-105.775 54.02 0 86.22 41.893 86.22 94.429 0 7.418 0 14.924-.79 22.341h-148.36c4.63 41.541 31.33 68.597 72.44 68.597 20.61-.375 40.85-5.481 59.17-14.924zm-22.34-101.934v-1.569c0-36.044-21.12-63.446-56.03-63.446-34.9 0-58.03 27.837-63.09 65.015zm239.39-166.51299986v282.49699986h-25.05l-2.79-20.683c-18.52 16.286-42.37 25.201-67.03 25.048-54.89 0-85.44-47.825-85.44-105.425 0-59.17 34.91-106.21 90.5-106.21 22.03-.031 43.48 7.1071 61.09 20.3363v-95.56329986zm-88.93 260.15599986c22.04-.7 43.12-9.169 59.52-23.91v-112.41c-15.32-13.773-35.01-21.687-55.6-22.341-41.19 0-65.88 33.686-65.88 79.94 0 43.461 21.55 78.719 61.96 78.719zm161.62-184.1421v206.9211h-29.41v-206.9211zm-1941.528 34.4731c-3.141 18.066-7.853 38.049-10.558 49.743l-29.759 122.705h-69.8182l-79.503773-274.20912h64.233473l37.2645 137.01812c2.705 12.13 7.853 32.901 11.78 50.181l45.385-187.19679h61.526l45.904 187.28279c4.277-17.454 9.338-38.049 12.129-50.181l36.394-137.10412h64.32l-78.545 274.29512h-69.819l-30.37-122.791c-2.706-11.869-7.422-31.679-10.563-49.743zm560.198-34.4731h50.879l3.928 21.5563c8.9-8.4408 19.246-15.2103 30.545-19.9848 11.111-4.3642 22.972-6.5 34.908-6.286 9.464-.5461 18.924 1.1175 27.634 4.8593 8.709 3.7418 16.429 9.459 22.547 16.6993 11.78 14.486 17.454 34.908 17.454 61.09v128.987h-58.383v-125.413c.741-9.536-2.055-19.011-7.855-26.617-3.244-3.227-7.17-5.685-11.489-7.195s-8.921-2.033-13.469-1.531c-14.198.416-27.796 5.823-38.403 15.272v145.481h-58.296zm386.44 150.8921 17.98 39.622c-24.33 14.756-52.38 22.208-80.82 21.468-61.09 0-104.722-45.469-104.722-108.566 0-60.392 40.412-107.7791 99.922-107.7791 57.25 0 92.86 40.4051 92.86 101.4951 0 7.856 0 18.416-.78 24.262h-134.4c5.15 28.624 24.35 42.326 56.46 42.326 18.58-.126 36.88-4.515 53.5-12.828zm-110.14-67.81h81.51v-1.921c.09-10.746-3.65-21.173-10.56-29.409-3.52-3.844-7.83-6.885-12.63-8.918-4.81-2.032-9.99-3.008-15.21-2.862-5.32-.109-10.61.881-15.54 2.908-4.92 2.027-9.37 5.047-13.08 8.872-7.93 8.849-12.98 19.896-14.49 31.679zm-309.637-83.3452c-2.516-.3423-5.052-.5173-7.592-.5238-11.899.0401-23.67 2.4537-34.624 7.0993-10.954 4.6457-20.872 11.4301-29.172 19.9557l-3.927-26.182h-50.968v206.832h58.385v-141.462c14.497-8.912 31.158-13.681 48.174-13.79 6.608-.041 13.206.485 19.724 1.572zm602.177 53.4982h.78l9.51-50.7068-2.96-.9568c-4.86-1.1744-9.84-1.8184-14.84-1.9207-11.91.0329-23.7 2.4425-34.67 7.0879-10.97 4.6453-20.9 11.4328-29.21 19.9654l-3.93-26.1803h-50.97v206.3973h58.39v-141.468c14.52-8.927 31.22-13.697 48.26-13.789 6.69-.038 13.38.488 19.98 1.571zm797.22-129.24899986c-3.72-.00046047-7.37 1.10473986-10.47 3.17582986s-5.52 5.01505-6.94 8.45957c-1.43 3.4445-1.81 7.2349-1.08 10.8918s2.52 7.016 5.16 9.6526 6 4.4322 9.65 5.1598c3.66.7275 7.45.3543 10.89-1.0724 3.45-1.4267 6.39-3.8429 8.47-6.9429 2.07-3.1001 3.17-6.7449 3.17-10.4733 0-4.9996-1.98-9.79443-5.52-13.32968-3.53-3.53524-8.33-5.52131986-13.33-5.52131986zm-1648.383 71.30169986c-27.364.038-54.417 5.8052-79.417 16.9303l11.17 45.643c18.341-8.384 38.222-12.871 58.385-13.177 25.484 0 38.834 10.209 38.834 36.827v1.92h-39.62c-57.599 0-83.867 23.128-83.867 65.104 0 37.614 27.053 63.447 67.809 63.447 23.177.1 45.498-8.747 62.313-24.697l3.578 19.636h47.737v-128.989c0-52.886-31.33-82.6443-86.922-82.6443zm28.974 159.4453c-10.955 7.836-23.837 12.542-37.264 13.613-17.456 0-27.84-9.774-27.84-23.91 0-14.139 10.211-23.477 29.409-23.477h35.695z" fill="#000"/></svg>

<svg width="2329" height="289" viewBox="0 0 2329 289" fill="none" xmlns="http://www.w3.org/2000/svg">
<path d="M2188.85 119.911L2177.85 95.2141C2200.48 81.7331 2226.4 74.8126 2252.73 75.227C2304.05 75.227 2328.75 103.416 2328.75 155.955V282.932H2303.61L2300.91 260.156C2281.18 276.962 2256.3 286.509 2230.39 287.209C2191.21 287.209 2166.51 263.299 2166.51 228.042C2166.51 189.292 2191.21 164.944 2241.74 164.944H2299.68V158.309C2299.68 121.832 2283.63 102.282 2248.02 102.282C2227.09 102.836 2206.67 108.918 2188.85 119.911H2188.85ZM2299.68 189.727H2242.87C2211.54 189.727 2195.92 202.644 2195.92 224.638C2195.92 246.632 2212.76 260.245 2237.46 260.245C2260.52 259.556 2282.58 250.676 2299.68 235.196V189.727ZM1622.89 282.935L1585.98 64.755L1508.39 282.935H1486.05L1408.82 64.2311L1371.55 282.935H1340.57L1389.27 8.72588H1419.46L1497.4 236.768L1574.98 8.72588H1605.18L1653.88 283.021L1622.89 282.935ZM1842.03 268.447C1820.19 280.859 1795.42 287.216 1770.29 286.862C1709.2 286.862 1670.37 243.75 1670.37 181.002C1670.37 121.832 1709.2 75.227 1763.23 75.227C1817.25 75.227 1849.45 117.12 1849.45 169.656C1849.45 177.074 1849.45 184.58 1848.66 191.997H1700.3C1704.93 233.538 1731.63 260.594 1772.74 260.594C1793.35 260.219 1813.59 255.113 1831.91 245.67L1842.03 268.447ZM1819.69 166.513V164.944C1819.69 128.9 1798.57 101.498 1763.66 101.498C1728.76 101.498 1705.63 129.335 1700.57 166.513H1819.69ZM2059.08 1.43832e-07V282.497H2034.03L2031.24 261.814C2012.72 278.1 1988.87 287.015 1964.21 286.862C1909.32 286.862 1878.77 239.037 1878.77 181.437C1878.77 122.267 1913.68 75.227 1969.27 75.227C1991.3 75.196 2012.75 82.3341 2030.36 95.5633V1.43832e-07H2059.08ZM1970.15 260.156C1992.19 259.456 2013.27 250.987 2029.67 236.246V123.836C2014.35 110.063 1994.66 102.149 1974.07 101.495C1932.88 101.495 1908.19 135.181 1908.19 181.435C1908.19 224.896 1929.74 260.154 1970.15 260.154V260.156ZM2131.77 76.0139V282.935H2102.36V76.0139H2131.77ZM190.242 110.487C187.101 128.553 182.389 148.536 179.684 160.23L149.925 282.935H80.1068L0.603027 8.72588H64.8365L102.101 145.744C104.806 157.874 109.954 178.645 113.881 195.925L159.266 8.72821H220.792L266.696 196.011C270.973 178.557 276.034 157.962 278.825 145.83L315.219 8.72588H379.539L300.994 283.021H231.175L200.805 160.23C198.099 148.361 193.383 128.551 190.242 110.487ZM750.44 76.0139H801.319L805.247 97.5702C814.147 89.1294 824.493 82.3599 835.792 77.5854C846.903 73.2212 858.764 71.0854 870.7 71.2994C880.164 70.7533 889.624 72.4169 898.334 76.1587C907.043 79.9005 914.763 85.6177 920.881 92.858C932.661 107.344 938.335 127.766 938.335 153.948V282.935H879.952V157.522C880.693 147.986 877.897 138.511 872.097 130.905C868.853 127.678 864.927 125.22 860.608 123.71C856.289 122.2 851.687 121.677 847.139 122.179C832.941 122.595 819.343 128.002 808.736 137.451V282.932H750.44V76.0139ZM1136.88 226.906L1154.86 266.528C1130.53 281.284 1102.48 288.736 1074.04 287.996C1012.95 287.996 969.318 242.527 969.318 179.43C969.318 119.038 1009.73 71.6509 1069.24 71.6509C1126.49 71.6509 1162.1 112.056 1162.1 173.146C1162.1 181.002 1162.1 191.562 1161.32 197.408H1026.92C1032.07 226.032 1051.27 239.734 1083.38 239.734C1101.96 239.608 1120.26 235.219 1136.88 226.906ZM1026.74 159.096H1108.25V157.175C1108.34 146.429 1104.6 136.002 1097.69 127.766C1094.17 123.922 1089.86 120.881 1085.06 118.848C1080.25 116.816 1075.07 115.84 1069.85 115.986C1064.53 115.877 1059.24 116.867 1054.31 118.894C1049.39 120.921 1044.94 123.941 1041.23 127.766C1033.3 136.615 1028.25 147.662 1026.74 159.445V159.096ZM717.103 75.7508C714.587 75.4085 712.051 75.2335 709.511 75.227C697.612 75.2671 685.841 77.6807 674.887 82.3263C663.933 86.972 654.015 93.7564 645.715 102.282L641.788 76.1H590.82V282.932H649.205V141.47C663.702 132.558 680.363 127.789 697.379 127.68C703.987 127.639 710.585 128.165 717.103 129.252V75.7508ZM1319.28 129.249H1320.06L1329.57 78.5422L1326.61 77.5854C1321.75 76.411 1316.77 75.767 1311.77 75.6647C1299.86 75.6976 1288.07 78.1072 1277.1 82.7526C1266.13 87.3979 1256.2 94.1854 1247.89 102.718L1243.96 76.5377H1192.99V282.935H1251.38V141.467C1265.9 132.54 1282.6 127.77 1299.64 127.678C1306.33 127.64 1313.02 128.166 1319.62 129.249H1319.28ZM2116.5 1.43832e-07C2112.78 -0.000460332 2109.13 1.10474 2106.03 3.17583C2102.93 5.24692 2100.51 8.19088 2099.09 11.6354C2097.66 15.0799 2097.28 18.8703 2098.01 22.5272C2098.74 26.1841 2100.53 29.5432 2103.17 32.1798C2105.81 34.8164 2109.17 36.612 2112.82 37.3396C2116.48 38.0671 2120.27 37.6939 2123.71 36.2672C2127.16 34.8405 2130.1 32.4243 2132.18 29.3243C2134.25 26.2242 2135.35 22.5794 2135.35 18.851C2135.35 13.8514 2133.37 9.05657 2129.83 5.52132C2126.3 1.98608 2121.5 1.43832e-07 2116.5 1.43832e-07ZM468.117 71.3017C440.753 71.3397 413.7 77.1069 388.7 88.232L399.87 133.875C418.211 125.491 438.092 121.004 458.255 120.698C483.739 120.698 497.089 130.907 497.089 157.525V159.445H457.469C399.87 159.445 373.602 182.573 373.602 224.549C373.602 262.163 400.655 287.996 441.411 287.996C464.588 288.096 486.909 279.249 503.724 263.299L507.302 282.935H555.039V153.946C555.039 101.06 523.709 71.3017 468.117 71.3017ZM497.091 230.747C486.136 238.583 473.254 243.289 459.827 244.36C442.371 244.36 431.987 234.586 431.987 220.45C431.987 206.311 442.198 196.973 461.396 196.973H497.091V230.747Z" fill="black"/>
</svg>
